**kern	**kern	**dynam
*part1	*part1	*part1
*staff2	*staff1	*
*I"Piano	*	*
*clefF4	*clefG2	*
*k[b-e-]	*k[b-e-]	*
=1	=1	=1
(2.AAA#X 2.AA#X	2.r	p
*	*clefF4	*
=	=	=
2.BBBn 2.BBn	4En 4G	p >
.	2E 2G	]
=	=	=
2.CC 2.C	4En 4G	p >
.	2E 2G	]
=	=	=
2.AAAn 2.AAn	4En 4F#X	p >
.	2E 2F#	]
=	=	=
2.BBBn) 2.BBn	4D#X 4F#X	p >
.	2D# 2F#	]
*	*clefG2	*
=||	=||	=||
*k[f#]	*k[f#]	*
*^	*	*
2.B	(4B	8r	p
.	.	(4b	.
*	*^	*	*
.	4G	2G/	.	.
.	.	.	4g 4b	.
.	4E)	.	.	.
.	.	.	[8e [8g [8b	]
*	*v	*v	*	*
=	=	=	=
(2B	2.C 2.E 2.G	8e] 8g] 8b]	.
*	*	*^	*
.	.	8b	([8c [8e [8g	.
.	.	4b	2c]) 2e] 2g]	.
4A)	.	4a)	.	.
*v	*v	*	*	*
*	*v	*v	*
=	=	=
*-	*-	*-
!!!system-decoration: {(s1,s2)}
